!!!COM: Dunstable, John
!!!OTL: Ave regina celorum
!!!ONM: No. 37
!!!YOR: from: "Musica Britannica" Vol. 8, edited by Manfred F. Bukofzer,
!!!YOR: 2nd rev. ed. (prepared by Margaret Bent, Ian Bent & Brian Trowell), pp.99-100
!!!YOO: Royal Musical Association (London)
!!!YOY: 1970
**kern	**kern	**kern
*ICvox	*ICvox	*ICvox
! tenor	! contratenor	! discantus
*M3/4	*M3/4	*M3/4
*>A	*>A	*>A
!! Section 'A'; (O) mensuration.
=1	=1	=1
2.G	2.d	[2.g
=2	=2	=2
2c	2e	4g]
.	.	4a
4d	4f	4b
=3	=3	=3
4c	2.g	4.cc
2e	.	.
.	.	8b
.	.	8a
.	.	8g
=4	=4	=4
2e	2c	4g
.	.	4.cc
[4d	4f	.
.	.	8b
=5	=5	=5
4d]	2f	2b
2c	.	.
.	4e	8a
.	.	8g
=6	=6	=6
4G	2g	4.b
4r	.	.
.	.	8g
4c	4e	4a
=7	=7	=7
4c	4g	4cc
2d	2f	8b
.	.	4a
.	.	8g
=8	=8	=8
4B	2d	8g
.	.	16f#x
.	.	16g
2A	.	8a
.	.	4f#x
.	8c	.
.	8B	8e
=9	=9	=9
2.G	2.d	2g
.	.	4r
=10	=10	=10
*>B	*>B	*>B
!! Section 'B'; (O) mensuration.
4c	2.r	2g
4.e	.	.
.	.	4f
8d	.	.
=11	=11	=11
8d	2.r	4f
16c	.	.
16d	.	.
8e	.	2e
4c	.	.
8B	.	.
=12	=12	=12
4d	2.r	4d
4c	.	8e
.	.	4g
8B	.	.
8G	.	8e
=13	=13	=13
8B	2.r	8g
8c	.	8a
8G	.	8b
8B	.	4g
4A	.	.
.	.	8f#x
=14	=14	=14
4G	2.r	4g
4.c	.	8a
.	.	8g
.	.	4cc
[8e	.	.
=15	=15	=15
8e]	2.r	8b
8c	.	8.a
8d	.	.
.	.	16g
8B	.	4g
4A	.	.
.	.	8f#x
=16	=16	=16
2.G	2.r	2g
.	.	4r
=17	=17	=17
!! Section 'C'; (O) mensuration.
2B	2d	2g
4A	4e	4a
=18	=18	=18
4d	4f#	4b
2e	2g	2cc
=19	=19	=19
4d	2f#x	2b
2c	.	.
.	8e	4a
.	8d	.
=20	=20	=20
2B	2f#x	2.b
[4G	4g	.
=21	=21	=21
4G]	2g	2dd
4B	.	.
4A	4a	4cc
=22	=22	=22
2d	2f	4b
.	.	4.a
[4c	4e	.
.	.	8g
=23	=23	=23
4c]	4e	2g
4B	4d	.
4A	[4e	4a
=24	=24	=24
4c	4e]	4g
2e	2A	2cc
=25	=25	=25
2d	4d	4b
.	4f	2a
4c	4e	.
=26	=26	=26
4B	2d	2g
2A	.	.
.	4c	8f#x
.	.	8e
=27	=27	=27
2.G	2.d	2g
.	.	4r
=28	=28	=28
2.B	2.d	2.g
=29	=29	=29
2.G	2.B	4.e
.	.	8f
.	.	4g
=30	=30	=30
2A	2c	4f
.	.	4.e
4G	4B	.
.	.	8d
=31	=31	=31
4F	4A	8d
.	.	16c
.	.	16d
2E	4.G	4e
.	.	8c#x
.	8F#x	8B
=32	=32	=32
2D	[2.A	2d
4A	.	4f
=33	=33	=33
2c	2A]	4e
.	.	4.a
[4B	4B	.
.	.	8g
=34	=34	=34
4B]	2d	4g
2A	.	4.f#x
.	4c	.
.	.	8e
=35	=35	=35
2.G	[2.d	2g
.	.	4r
=36	=36	=36
2.B	2.d]	[2.g
=37	=37	=37
2c	[2.e	4g]
.	.	2a
4A	.	.
=38	=38	=38
4G	4e]	4b
2F	2f	4.a
.	.	8g
=39	=39	=39
4r	4e	4g
4G	4d	4r
4A	4f	4cc
=40	=40	=40
4G	2g	8b
.	.	4d
4B	.	.
.	.	8b
8c	4e	4g
[8e	.	.
=41	=41	=41
8e]	4g	8b
8c	.	8cc
4d	8f	8a
.	4d	4b
8B	.	.
[8c	8e	8g
=42	=42	=42
8c]	8c	8a
8B	2d	4b
8G	.	.
8B	.	4g
4A	.	.
.	8c#x	8f#x
=43	=43	=43
[2.G	[2.d	[2.g
=43a	=43a	=43a
2.G]	2.d]	2.g]
=44	=44	=44
!! Section 'D'; (O) mensuration.
2.r	[2.g	2.g
=45	=45	=45
2.r	4g]	4b
.	2a	4.cc
.	.	8b
=46	=46	=46
2.r	4f	2dd
.	2e	.
.	.	8cc#x
.	.	8b
=47	=47	=47
2.r	2d	4dd
.	.	4r
.	4r	8b
.	.	8a
=48	=48	=48
2.r	2e	4.cc
.	.	8b
.	8f	8a
.	8e	8g
=49	=49	=49
2.r	4g	4b
.	8f	8a
.	4g	8g
.	.	8b
.	8e	[8cc
=50	=50	=50
2.r	4f	8cc]
.	.	8dd
.	8g	8b
.	4e	8g
.	.	4cc
.	8c	.
=51	=51	=51
2.r	8d	8b
.	8c	8.a
.	4B	.
.	.	16g
.	.	4g
.	4A	.
.	.	8f#x
=52	=52	=52
2.r	2.G	2.g
=53	=53	=53
2.r	2.r	2.r
=54	=54	=54
2.r	2.g	2.g
=55	=55	=55
2.r	4.g	4.e
.	8f	8f
.	8e	8g
.	8d	8a
=56	=56	=56
2.r	8d	4f
.	16c	.
.	16d	.
.	8e	2e
.	8B	.
.	8.c#x	.
.	16B	.
=57	=57	=57
2.r	4d	4d
.	4.f	4r
.	.	8d
.	8e	8c
=58	=58	=58
2.r	4g	4e
.	4.f	4.a
.	8e	8g
=59	=59	=59
2.r	4e	4.cc
.	4.c	.
.	.	8b
.	.	8a
.	8B	8g
=60	=60	=60
2.r	4d	8b
.	.	16a
.	.	16b
.	2c	8cc
.	.	4a
.	.	8g
=61	=61	=61
2.r	2.e	2g
.	.	4r
=62	=62	=62
2.r	4c	4g
.	4.f	4.a
.	8e	8g
=63	=63	=63
2.r	2.g	4.b
.	.	8cc
.	.	4dd
=64	=64	=64
2.r	2a	4.cc
.	.	8a
.	4g	4b
=65	=65	=65
2.r	4e	4g
.	4.f	8f
.	.	4a
.	8e	8g
=66	=66	=66
2.r	8c	8e
.	4d	8d
.	.	8f
.	8B	4g
.	4c	.
.	.	8a
=67	=67	=67
2.r	8B	4b
.	4G	.
.	.	8g
.	8B	8.g
.	4A	.
.	.	16e
.	.	8f#x
=68	=68	=68
2.r	2.G	2g
.	.	4r
=69	=69	=69
!! Section 'E'; (O) mensuration.
2.c	2.r	2g
.	.	8a
.	.	8g
=70	=70	=70
4e	2.r	4.cc
2d	.	.
.	.	16b
.	.	16cc
.	.	8b
.	.	8a
=71	=71	=71
2.c	2.r	4cc
.	.	4r
.	.	8a
.	.	8g
=72	=72	=72
2G	2.r	4.b
.	.	8cc
4G	.	4dd
=73	=73	=73
4A	2.r	4.cc
4c	.	.
.	.	8a
4d	.	4b
=74	=74	=74
4.e	2.r	8g
.	.	4cc
8d	.	8b
8B	.	8g
8c	.	8a
=75	=75	=75
8.A	2.r	8cc
.	.	8.b
16G	.	.
8A	.	.
.	.	16a
8c	.	4a
4B-x	.	.
.	.	8g
=76	=76	=76
4A	2.r	2a
4r	.	.
8d	.	4r
8c	.	.
=77	=77	=77
4.e	2.r	2g
8c	.	.
4d	.	8b
.	.	8a
=78	=78	=78
8c	2.r	4c
4A	.	.
.	.	8a
8B	.	4g
4G	.	.
.	.	8e
=79	=79	=79
8c	2.r	8g
4d	.	8.f
.	.	16d
8B	.	4g
4A	.	.
.	.	8f#x
=80	=80	=80
[2.G	2.r	[2.g
=80a	=80a	=80a
2.G]	2.r	2.g]
*M2/2	*M2/2	*M2/2
=81	=81	=81
!! Section 'F'; (C) mensuration.
[1G	1d	2.b
.	.	[4dd
=82	=82	=82
1G]	2g	4dd]
.	.	4cc
.	4e	2b
.	4d	.
=83	=83	=83
4c	4e	4a
4d	4f	4b
2e	4e	4g
.	4c	[4cc
=84	=84	=84
4c	4g	8cc]
.	.	8b
4e	2g	4cc
2d	.	4dd
.	4f	4b
=85	=85	=85
[1c	2g	1cc
.	4r	.
.	4e	.
=86	=86	=86
1c]	1e	4r
.	.	4a
.	.	4a
.	.	4g
=87	=87	=87
4c	4e	2cc
4A	4.f	.
2G	.	4b
.	8d	.
.	4e	4g
=88	=88	=88
4F	4f	4a
2G	4e	4.b
.	4g	.
.	.	8g
4F	4f	4a
=89	=89	=89
4G	4d	4b
4B	2d	2g
2A	.	.
.	4c	4f#x
*M3/2	*M3/2	*M3/2
=90	=90	=90
2G	2d	1g
4r	4B	.
4B	4G	.
2c	2A	4r
.	.	4e
*M2/2	*M2/2	*M2/2
=91	=91	=91
4B	2G	4g
2d	.	4f
.	2r	2d
[4B	.	.
=92	=92	=92
4B]	4d	4.g
2A	2.e	.
.	.	8f
.	.	2a
[4c	.	.
=93	=93	=93
4c]	4c	4g
4B	2d	4.g
2A	.	.
.	.	8e
.	4c	4f#x
=94	=94	=94
[1G	2d	1g
.	4r	.
.	4e	.
=95	=95	=95
1G]	3g	1r
.	6f	.
.	3e	.
.	6d	.
=96	=96	=96
2c	2c	2.e
4A	4r	.
4B	[4g	4d
=97	=97	=97
2G	4g]	4e
.	2e	2g
4c	.	.
[4d	4d	4f
=98	=98	=98
4d]	2f	2d
4B-x	.	.
2c	4e	4e
.	[4e	[4c
=99	=99	=99
2A	4e]	4c]
.	2c	2f
4F	.	.
[4G	4B	[4e
=100	=100	=100
4G]	4G	8e]
.	.	8d
4F	2A	2d
2G	.	.
.	4G	4c#x
=101	=101	=101
4F	4A	4d
2G	4G	4e
.	4B	4g
[4A	[4c	[4f
=102	=102	=102
4A]	4c]	8f]
.	.	8e
4G	2B	2e
2F	.	.
.	4A	8d
.	.	8c
=103	=103	=103
2E	2.B	2e
2G	.	4r
.	[4d	[4g
=104	=104	=104
4B	4d]	4g]
4A	2e	4a
2c	.	4g
.	4c	[4cc
=105	=105	=105
4e	4A	4cc]
2d	4B	4dd
.	4G	4b
4c	4A	[4a
=106	=106	=106
4B	4d	8a]
.	.	8g
4c	4c	4g
2d	4B	4f#x
.	[4G	[4d
=107	=107	=107
4B	4G]	4d]
4G	4B	2g
2A	2c#x	.
.	.	8f#x
.	.	8e
=108	=108	=108
1G	1d	1g
==	==	==
*-	*-	*-
!!!ENC: Mark Laxton
!!!EDD: Mark Laxton
!!!YEC: Mark Laxton, 1987
!!!EMD: Reference records added by D. Huron, 2001
!!!EEV: 1.1
